findly-builder/apps/searchassist/src/assets/images/left-menu-icons/newIcons/Summery.svg

<?xml version="1.0" encoding="UTF-8"?>
<svg width="19px" height="19px" viewBox="0 0 19 19" version="1.1" xmlns="http://www.w3.org/2000/svg" xmlns:xlink="http://www.w3.org/1999/xlink">
    <title>Group 9</title>
    <g id="Page-1" stroke="none" stroke-width="1" fill="none" fill-rule="evenodd">
        <g id="icons" transform="translate(-17.000000, -115.000000)">
            <g id="Group-9" transform="translate(17.000000, 115.000000)">
                <g id="Icon-/-16x16-/-List">
                    <g id="Group">
                        <rect id="Rectangle" fill-opacity="0" fill="#D8D8D8" x="0" y="0" width="19" height="19"></rect>
                        <path d="M14.019331,2.375 C14.8719988,2.375 15.5634538,3.06552699 15.5634538,3.91851596 L15.5634538,3.91851596 L15.5634538,15.081484 C15.5634538,15.934473 14.8719988,16.625 14.019331,16.625 L14.019331,16.625 L4.71078944,16.625 C3.85812162,16.625 3.16666667,15.934473 3.16666667,15.081484 L3.16666667,15.081484 L3.16666667,3.91851596 C3.16666667,3.06552699 3.85812162,2.375 4.71078944,2.375 L4.71078944,2.375 Z M14.019331,3.60153724 L4.71078944,3.60153724 C4.53515097,3.60153724 4.39320391,3.74329381 4.39320391,3.91851596 L4.39320391,3.91851596 L4.39320391,15.081484 C4.39320391,15.2567062 4.53515097,15.3984628 4.71078944,15.3984628 L4.71078944,15.3984628 L14.019331,15.3984628 C14.1949695,15.3984628 14.3369165,15.2567062 14.3369165,15.081484 L14.3369165,15.081484 L14.3369165,3.91851596 C14.3369165,3.74329381 14.1949695,3.60153724 14.019331,3.60153724 L14.019331,3.60153724 Z M12.1576227,11.6835415 C12.4963216,11.6835415 12.7708913,11.9581113 12.7708913,12.2968102 C12.7708913,12.6166925 12.5259819,12.8793731 12.2134426,12.9075726 L12.1576227,12.9100788 L6.57249775,12.9100788 C6.23379885,12.9100788 5.95922913,12.6355091 5.95922913,12.2968102 C5.95922913,11.9769279 6.20413854,11.7142472 6.51667781,11.6860478 L6.57249775,11.6835415 L12.1576227,11.6835415 Z M12.1576227,8.89097908 C12.4963216,8.89097908 12.7708913,9.1655488 12.7708913,9.5042477 C12.7708913,9.82413001 12.5259819,10.0868106 12.2134426,10.1150101 L12.1576227,10.1175163 L6.57249775,10.1175163 C6.23379885,10.1175163 5.95922913,9.84294661 5.95922913,9.5042477 C5.95922913,9.1843654 6.20413854,8.92168476 6.51667781,8.89348531 L6.57249775,8.89097908 L12.1576227,8.89097908 Z M10.2959144,6.09841662 C10.6346133,6.09841662 10.909183,6.37298633 10.909183,6.71168524 C10.909183,7.03156754 10.6642736,7.29424818 10.3517343,7.32244763 L10.2959144,7.32495386 L6.57249775,7.32495386 C6.23379885,7.32495386 5.95922913,7.05038415 5.95922913,6.71168524 C5.95922913,6.39180294 6.20413854,6.1291223 6.51667781,6.10092285 L6.57249775,6.09841662 L10.2959144,6.09841662 Z" id="Combined-Shape" fill="#8A959F"></path>
                    </g>
                </g>
            </g>
        </g>
    </g>
</svg>

<svg width="19" height="19" xmlns="http://www.w3.org/2000/svg"><g fill="none" fill-rule="evenodd"><path d="M0 0h19v19H0z"/><path d="M14.02 2.375c.852 0 1.543.69 1.543 1.544V15.08c0 .853-.691 1.544-1.544 1.544H4.711c-.853 0-1.544-.69-1.544-1.544V3.92c0-.853.691-1.544 1.544-1.544Zm0 1.227H4.71a.317.317 0 0 0-.317.317V15.08c0 .176.142.317.318.317h9.308a.317.317 0 0 0 .318-.317V3.92a.317.317 0 0 0-.318-.317Zm-1.862 8.082a.613.613 0 0 1 .055 1.224l-.055.002H6.572a.613.613 0 0 1-.055-1.224l.055-.002h5.586Zm0-2.793a.613.613 0 0 1 .055 1.224l-.055.003H6.572a.613.613 0 0 1-.055-1.225l.055-.002h5.586Zm-1.862-2.793a.613.613 0 0 1 .056 1.224l-.056.003H6.572a.613.613 0 0 1-.055-1.224l.055-.003h3.724Z" fill="#8A959F"/></g></svg>
